assets/icons/publish.svg

<svg width="20" height="20" viewBox="0 0 20 20" fill="none" xmlns="http://www.w3.org/2000/svg">
<path d="M7.979 13.2005L15.324 15.8278C15.4474 15.8722 15.5792 15.8884 15.7096 15.8753C15.8401 15.8622 15.966 15.8201 16.0781 15.752C16.1902 15.684 16.2857 15.5918 16.3576 15.4821C16.4295 15.3725 16.476 15.2481 16.4936 15.1182L17.9921 3.79148C18.0833 3.10186 17.3689 2.58744 16.7385 2.88745L2.49885 9.68445C1.79483 10.0205 1.84763 11.0365 2.58365 11.2981L4.5357 11.9925L5.59973 12.3661M10.7999 14.2086L9.20784 16.8695C8.68782 17.5159 7.64059 17.1503 7.64059 16.323V14.1926C7.64062 13.7905 7.792 13.4032 8.0646 13.1077L11.1615 9.74765" stroke="currentColor" stroke-width="1.5" stroke-linecap="round" stroke-linejoin="round"/>
</svg>

<svg xmlns="http://www.w3.org/2000/svg" width="20" height="20" fill="none" viewBox="0 0 20 20"><path stroke="#333741" stroke-linecap="round" stroke-linejoin="round" stroke-width="1.5" d="m7.979 13.2 7.345 2.628a.88.88 0 0 0 1.17-.71l1.498-11.327c.091-.69-.623-1.204-1.254-.904L2.498 9.684a.874.874 0 0 0 .086 1.614l1.952.694 1.064.374m5.2 1.843-1.592 2.66c-.52.647-1.567.281-1.567-.546v-2.13c0-.402.151-.79.424-1.085l3.097-3.36"/></svg>
